X: 131
T: Aynı Bedende Can Gibiyiz
C: Mahmut Oğul
O: Turkey
F: http://compmusic.upf.edu/node/140
N: kurdi--sarki--duyek--ayni_bedende--mahmut_ogul
N: makam= kurdi
N: form= sarki
N: usul= duyek = 8/4
M: 8/4
L: 1/16
K: C _B   
Q: 1/4=204
%%MIDI tuningsystem comma53
d3c B2 A2 e6 z2  | e4 c2 B2 A6 z2  | \
w:  ARANAĞME  |   | 
f3e d2 c2 g6 z2  | a4 f2 e2 d6 z2  | 
w:   |   | 
g2 a4 a2 b4 a4  | e4 a2 a2 g2 f2 e2 d2  | \
w:   |   | 
A2 B4 c2 d2 B2 A4  | A2 B4 c2 d2 B2 A4  | 
w:   |   | 
d3c B2 A2 e6 z2  | e4 c2 B2 A6 z2  | \
w:  ARANAĞME  |   | 
f3e d2 c2 g6 z2  | a4 f2 e2 d6 z2  | 
w:   |   | 
g2 a4 a2 b4 a4  | e4 a2 a2 g2 f2 e2 d2  | \
w:   |   | 
A2 B4 c2 d2 B2 A4  | A2 B4 c2 d2 B2 A4  | 
w:   |   | 
d3c BA3 e4 z4  | e4 c2 B2 A6 z2  | f2 e2 d4 c2 g4 z2  | \
w:  Ay nı  be den de   |  can  gi bi yiz    |  Ca na  can  ve ren   | 
a4 f2 e2 d6 z2  | 
w:  kan  gi bi yiz    | 
g2 a4 a2 b4 a4  | e4 a2 a2 g2 f2 e2 d2  | \
w:  Ya nıp  da  bit mez   |  köz  gi bi yiz    | 
A2 B4 c2 d2 B2 A4  | A2 B4 c2 d2 B2 A4  | 
w:  Biz_ ay rı la ma yız    |  SAZ  | 
d3c BA3 e4 z4  | e4 c2 B2 A6 z2  | f2 e2 d4 c2 g4 z2  | \
w:  Ay nı  be den de   |  can  gi bi yiz    |  Ca na  can  ve ren   | 
a4 f2 e2 d6 z2  | 
w:  kan  gi bi yiz    | 
g2 a4 a2 b4 a4  | e4 a2 a2 g2 f2 e2 d2  | \
w:  Ya nıp  da  bit mez   |  köz  gi bi yiz    | 
A2 B4 c2 d2 B2 A4  | A2 B4 c2 d2 B2 A4  | 
w:  Biz_ ay rı la ma yız    |  SAZ  | 
d2 e2 ee3 e2 f2 e4  | c2 d2 dd3 d2 e2 d4  | \
w:  El ler  a yır sa  bi le   |  Yıl lar  a yır sa  bi le    | 
B2 B2 BA3 A2 G2 d4  | 
w:  Yol lar  a yır sa  bi le    | 
A2 B4 c2 d2 B2 A4  | d2 e2 ee3 e2 f2 e4  | \
w:  Biz_ ay rı la ma yız    |  El ler  a yır sa  bi le   | 
c2 d2 dd3 d2 e2 d4  | B2 B2 BA3 A2 G2 d4  | 
w:  Yıl lar  a yır sa  bi le    |  Yol lar  a yır sa  bi le    | 
A2 B4 c2 d2 B2 A4  | d3c B2 A2 e6 z2  | \
w:  Biz_ ay rı la ma yız    |  ARANAĞME  | 
e4 c2 B2 A6 z2  | f3e d2 c2 g6 z2  | 
w:   |   | 
a4 f2 e2 d6 z2  | g2 a4 a2 b4 a4  | e4 a2 a2 g2 f2 e2 d2  | \
w:   |   |   | 
A2 B4 c2 d2 B2 A4  | 
w:   | 
A2 B4 c2 d2 B2 A4  | d3c B2 A2 e6 z2  | \
w:   |  ARANAĞME  | 
e4 c2 B2 A6 z2  | f3e d2 c2 g6 z2  | 
w:   |   | 
a4 f2 e2 d6 z2  | g2 a4 a2 b4 a4  | e4 a2 a2 g2 f2 e2 d2  | \
w:   |   |   | 
A2 B4 c2 d2 B2 A4  | 
w:   | 
A2 B4 c2 d2 B2 A4  | d3c BA3 e4 z4  | \
w:   |  Ay nı  be den de   | 
e4 c2 B2 A6 z2  | f2 e2 d4 c2 g4 z2  | 
w:  can  gi bi yiz    |  Ca na  can  ve ren   | 
a4 f2 e2 d6 z2  | g2 a4 a2 b4 a4  | e4 a2 a2 g2 f2 e2 d2  | \
w:  kan  gi bi yiz    |  Ya nıp  da  bit mez   |  köz  gi bi yiz    | 
A2 B4 c2 d2 B2 A4  | 
w:  Biz_ ay rı la ma yız    | 
A2 B4 c2 d2 B2 A4  | d3c BA3 e4 z4  | \
w:  SAZ  |  Ay nı  be den de   | 
e4 c2 B2 A6 z2  | f2 e2 d4 c2 g4 z2  | 
w:  can  gi bi yiz    |  Ca na  can  ve ren   | 
a4 f2 e2 d6 z2  | g2 a4 a2 b4 a4  | e4 a2 a2 g2 f2 e2 d2  | \
w:  kan  gi bi yiz    |  Ya nıp  da  bit mez   |  köz  gi bi yiz    | 
A2 B4 c2 d2 B2 A4  | 
w:  Biz_ ay rı la ma yız    | 
A2 B4 c2 d2 B2 A4  | d2 e2 ee3 e2 f2 e4  | \
w:  SAZ  |  El ler  a yır sa  bi le   | 
c2 d2 dd3 d2 e2 d4  | B2 B2 BA3 A2 G2 d4  | 
w:  Yıl lar  a yır sa  bi le    |  Yol lar  a yır sa  bi le    | 
A2 B4 c2 d2 B2 A4  | d2 e2 ee3 e2 f2 e4  | \
w:  Biz_ ay rı la ma yız    |  El ler  a yır sa  bi le   | 
c2 d2 dd3 d2 e2 d4  | B2 B2 BA3 A2 G2 d4  | 
w:  Yıl lar  a yır sa  bi le    |  Yol lar  a yır sa  bi le    | 
A2 B4 c2 d2 B2 A4  | d3c B2 A2 e6 z2  | \
w:  Biz_ ay rı la ma yız    |  Biz  i ki  çıl gın   | 
e4 c2 B2 A6 z2  | f2 e2 d2 c2 g6 z2  | 
w:  sev gi li yiz    |  De li ce si ne   | 
a4 f4 e2 d4 z2  | g4 a2 b2 a4 g4  | e2 f4 a2 g2 f2 e2 d2  | \
w:  sev da lı yız    |  Öy le  bü yük  ki   |  bu  sev gi miz   | 
A2 B4 c2 d2 B2 A4  | 
w:  Biz_ ay rı la ma yız    | 
A2 B4 c2 d2 B2 A4  | d3c B2 A2 e6 z2  | \
w:  SAZ  |  Biz  i ki  çıl gın   | 
e4 c2 B2 A6 z2  | f2 e2 d2 c2 g6 z2  | 
w:  sev gi li yiz    |  De li ce si ne   | 
a4 f4 e2 d4 z2  | g4 a2 b2 a4 g4  | e2 f4 a2 g2 f2 e2 d2  | \
w:  sev da lı yız    |  Öy le  bü yük  ki   |  bu  sev gi miz   | 
A2 B4 c2 d2 B2 A4  | 
w:  Biz_ ay rı la ma yız    | 
A2 B4 c2 d2 B2 A4  | d2 e2 ee3 e2 f2 e4  | \
w:  SAZ  |  El ler  a yır sa  bi le   | 
c2 d2 dd3 d2 e2 d4  | B2 B2 BA3 A2 G2 d4  | 
w:  Yıl lar  a yır sa  bi le    |  Yol lar  a yır sa  bi le    | 
A2 B4 c2 d2 B2 A4  | d2 e2 ee3 e2 f2 e4  | \
w:  Biz_ ay rı la ma yız    |  El ler  a yır sa  bi le   | 
c2 d2 dd3 d2 e2 d4  | B2 B2 BA3 A2 G2 d4  | 
w:  Yıl lar  a yır sa  bi le    |  Yol lar  a yır sa  bi le    | 
A2 B4 c2 d2 B2 A4  | |


